assets/landing/benefits/developer-friendly.svg

<svg width="40" height="40" viewBox="0 0 40 40" fill="none" xmlns="http://www.w3.org/2000/svg">
<path fill-rule="evenodd" clip-rule="evenodd" d="M26.425 2.85L34.625 11.1L35 12V36.25L33.75 37.5H6.25L5 36.25V3.75L6.25 2.5H25.55L26.425 2.85ZM25 12.5H32.5L25 5V12.5ZM7.5 5V35H32.5V15H23.75L22.5 13.75V5H7.5ZM12.655 23.8325L17.1975 19.2625L15.425 17.5L10 22.9475V24.715L15.4275 30.15L17.195 28.3825L12.655 23.8325ZM22 19.285L23.75 17.5125L29.2225 22.95V24.7225L23.75 30.155L21.9875 28.3825L26.565 23.8325L22 19.285Z" fill="#03E2B3"/>
</svg>

<svg xmlns="http://www.w3.org/2000/svg" fill="#03E2B3" viewBox="0 0 40 40">
  <path stroke="none" fill-rule="evenodd" d="m26.43 2.85 8.2 8.25.37.9v24.25l-1.25 1.25H6.25L5 36.25V3.75L6.25 2.5h19.3l.88.35ZM25 12.5h7.5L25 5v7.5ZM7.5 5v30h25V15h-8.75l-1.25-1.25V5h-15Zm5.15 18.83 4.55-4.57-1.77-1.76L10 22.95v1.77l5.43 5.43 1.77-1.77-4.54-4.55ZM22 19.3l1.75-1.78 5.47 5.44v1.77l-5.47 5.44-1.76-1.78 4.58-4.55L22 19.3Z" clip-rule="evenodd"/>
</svg>
